.local/share/icons/Gruvbox-Plus-Dark/mimetypes/scalable/application-x-scilab.svg

<svg width="256" height="256" viewBox="0 0 256 256" fill="none" xmlns="http://www.w3.org/2000/svg">
<g opacity="0.4" filter="url(#filter0_f)">
<path d="M55.0839 15.5636H155.608L216.009 75.7129L216.011 224.609C216.011 233.52 208.749 240.737 199.838 240.737H55.0838C46.1734 240.737 39 233.564 39 224.654V31.6474C39 22.737 46.1734 15.5636 55.0838 15.5636H55.0839Z" fill="#282828"/>
</g>
<path d="M55.0839 15H155.608L216.009 75.1493L216.011 224.045C216.011 232.956 208.749 240.174 199.838 240.174H55.0838C46.1734 240.174 39 233 39 224.09V31.0838C39 22.1734 46.1734 15 55.0838 15H55.0839Z" fill="#ebdbb2"/>
<path opacity="0.2" d="M55.0839 15H155.608L216.009 75.1493L216.011 224.045C216.011 232.956 208.749 240.174 199.838 240.174H55.0838C46.1734 240.174 39 233 39 224.09V31.0838C39 22.1734 46.1734 15 55.0838 15H55.0839Z" fill="url(#paint0_linear)"/>
<path fill-rule="evenodd" clip-rule="evenodd" d="M155.609 22.9787H55.0839C50.58 22.9787 46.9787 26.5799 46.9787 31.0838V224.09C46.9787 228.594 50.5799 232.195 55.0838 232.195H199.838C204.371 232.195 208.032 228.521 208.032 224.046V75.1493L155.609 22.9787ZM155.608 15H55.0839C46.1735 15 39 22.1734 39 31.0838V224.09C39 233 46.1734 240.174 55.0838 240.174H199.838C208.749 240.174 216.011 232.956 216.011 224.045L216.009 75.1493L155.608 15Z" fill="url(#paint1_linear)"/>
<path d="M145.486 83.5077C145.486 90.4151 139.827 96.0143 132.844 96.0143C125.863 96.0143 120.204 90.4151 120.204 83.5077C120.204 76.5992 125.863 71 132.844 71C139.827 71 145.486 76.5992 145.486 83.5077ZM119.128 113.504C119.128 120.413 113.469 126.012 106.487 126.012C99.5044 126.012 93.8467 120.413 93.8467 113.504C93.8467 106.597 99.5044 100.998 106.487 100.998C113.469 100.998 119.128 106.597 119.128 113.504ZM93.2811 143.499C93.2811 150.407 87.6222 156.006 80.6411 156.006C73.6589 156.006 68 150.407 68 143.499C68 136.59 73.6589 130.991 80.6411 130.991C87.6222 130.991 93.2811 136.59 93.2811 143.499ZM134.661 143.499C134.661 150.407 129.003 156.006 122.021 156.006C115.039 156.006 109.38 150.407 109.38 143.499C109.38 136.59 115.039 130.991 122.021 130.991C129.003 130.991 134.661 136.59 134.661 143.499ZM162.089 113.504C162.089 120.413 156.431 126.012 149.449 126.012C142.467 126.012 136.808 120.413 136.808 113.504C136.808 106.597 142.467 100.998 149.449 100.998C156.431 100.998 162.089 106.597 162.089 113.504ZM176.053 143.499C176.053 150.407 170.394 156.006 163.413 156.006C156.431 156.006 150.772 150.407 150.772 143.499C150.772 136.59 156.431 130.991 163.413 130.991C170.394 130.991 176.053 136.59 176.053 143.499ZM188 173.492C188 180.401 182.341 186 175.359 186C168.378 186 162.719 180.401 162.719 173.492C162.719 166.585 168.378 160.986 175.359 160.986C182.341 160.986 188 166.585 188 173.492ZM149.771 173.492C149.771 180.401 144.112 186 137.131 186C130.149 186 124.49 180.401 124.49 173.492C124.49 166.585 130.149 160.986 137.131 160.986C144.112 160.986 149.771 166.585 149.771 173.492ZM111.55 173.492C111.55 180.401 105.891 186 98.9089 186C91.9267 186 86.2689 180.401 86.2689 173.492C86.2689 166.585 91.9267 160.986 98.9089 160.986C105.891 160.986 111.55 166.585 111.55 173.492Z" fill="url(#paint2_linear)"/>
<path opacity="0.25" d="M155.608 17V61.2306C155.608 70.141 162.867 77.1605 171.777 77.1605L216.009 77.1493V75.1493L155.608 17Z" fill="#282828"/>
<path d="M155.608 15V59.2306C155.608 68.141 162.867 75.1605 171.777 75.1605L216.009 75.1493L155.608 15Z" fill="url(#paint3_linear)"/>
<defs>
<filter id="filter0_f" x="23.8778" y="0.441412" width="207.255" height="255.418" filterUnits="userSpaceOnUse" color-interpolation-filters="sRGB">
<feFlood flood-opacity="0" result="BackgroundImageFix"/>
<feBlend mode="normal" in="SourceGraphic" in2="BackgroundImageFix" result="shape"/>
<feGaussianBlur stdDeviation="7.5611" result="effect1_foregroundBlur"/>
</filter>
<linearGradient id="paint0_linear" x1="39" y1="15" x2="39" y2="240.174" gradientUnits="userSpaceOnUse">
<stop offset="1e-07" stop-color="#fb4934"/>
<stop offset="1" stop-color="#cc241d"/>
</linearGradient>
<linearGradient id="paint1_linear" x1="39" y1="15" x2="39" y2="240.174" gradientUnits="userSpaceOnUse">
<stop offset="1e-07" stop-color="#fb4934"/>
<stop offset="1" stop-color="#cc241d"/>
</linearGradient>
<linearGradient id="paint2_linear" x1="68" y1="71" x2="68" y2="186" gradientUnits="userSpaceOnUse">
<stop offset="1e-07" stop-color="#fb4934"/>
<stop offset="1" stop-color="#cc241d"/>
</linearGradient>
<linearGradient id="paint3_linear" x1="155.608" y1="15" x2="155.608" y2="75.1605" gradientUnits="userSpaceOnUse">
<stop offset="1e-07" stop-color="#fb4934"/>
<stop offset="1" stop-color="#cc241d"/>
</linearGradient>
</defs>
</svg>

<svg width="256" height="256" fill="none" version="1.1" viewBox="0 0 256 256" xmlns="http://www.w3.org/2000/svg">
  <path d="m55.08 15h100.5l60.4 60.15 2e-3 148.9c0 8.911-7.262 16.13-16.17 16.13h-144.8c-8.91 0-16.08-7.174-16.08-16.08v-193c0-8.91 7.173-16.08 16.08-16.08h1e-4z" fill="#ebdbb2"/>
  <path d="m55.08 15h100.5l60.4 60.15 2e-3 148.9c0 8.911-7.262 16.13-16.17 16.13h-144.8c-8.91 0-16.08-7.174-16.08-16.08v-193c0-8.91 7.173-16.08 16.08-16.08h1e-4z" fill="url(#paint0_linear)" opacity=".2"/>
  <path d="m155.6 22.98h-100.5c-4.504 0-8.105 3.601-8.105 8.105v193c0 4.504 3.601 8.105 8.105 8.105h144.8c4.533 0 8.194-3.674 8.194-8.149v-148.9l-52.42-52.17zm-1e-3 -7.979h-100.5c-8.91 0-16.08 7.173-16.08 16.08v193c0 8.91 7.173 16.08 16.08 16.08h144.8c8.911 0 16.17-7.218 16.17-16.13l-2e-3 -148.9-60.4-60.15z" clip-rule="evenodd" fill="url(#paint0_linear)" fill-rule="evenodd"/>
  <path d="m145.5 83.51c0 6.907-5.659 12.51-12.64 12.51-6.981 0-12.64-5.599-12.64-12.51 0-6.908 5.659-12.51 12.64-12.51 6.983 0 12.64 5.599 12.64 12.51zm-26.36 30c0 6.909-5.659 12.51-12.64 12.51-6.983 0-12.64-5.599-12.64-12.51 0-6.907 5.658-12.51 12.64-12.51 6.982 0 12.64 5.599 12.64 12.51zm-25.85 30c0 6.908-5.659 12.51-12.64 12.51-6.982 0-12.64-5.599-12.64-12.51 0-6.909 5.659-12.51 12.64-12.51 6.981 0 12.64 5.599 12.64 12.51zm41.38 0c0 6.908-5.658 12.51-12.64 12.51s-12.64-5.599-12.64-12.51c0-6.909 5.659-12.51 12.64-12.51s12.64 5.599 12.64 12.51zm27.43-30c0 6.909-5.658 12.51-12.64 12.51s-12.64-5.599-12.64-12.51c0-6.907 5.659-12.51 12.64-12.51s12.64 5.599 12.64 12.51zm13.96 30c0 6.908-5.659 12.51-12.64 12.51-6.982 0-12.64-5.599-12.64-12.51 0-6.909 5.659-12.51 12.64-12.51 6.981 0 12.64 5.599 12.64 12.51zm11.95 29.99c0 6.909-5.659 12.51-12.64 12.51-6.981 0-12.64-5.599-12.64-12.51 0-6.907 5.659-12.51 12.64-12.51 6.982 0 12.64 5.599 12.64 12.51zm-38.23 0c0 6.909-5.659 12.51-12.64 12.51-6.982 0-12.64-5.599-12.64-12.51 0-6.907 5.659-12.51 12.64-12.51 6.981 0 12.64 5.599 12.64 12.51zm-38.22 0c0 6.909-5.659 12.51-12.64 12.51-6.982 0-12.64-5.599-12.64-12.51 0-6.907 5.658-12.51 12.64-12.51 6.982 0 12.64 5.599 12.64 12.51z" fill="url(#paint2_linear)"/>
  <path d="m155.6 17v44.23c0 8.91 7.259 15.93 16.17 15.93l44.23-0.0112v-2l-60.4-58.15z" fill="#282828" opacity=".25"/>
  <path d="m155.6 15v44.23c0 8.91 7.259 15.93 16.17 15.93l44.23-0.0112-60.4-60.15z" fill="url(#paint3_linear)"/>
  <defs>
    <linearGradient id="paint0_linear" x1="39" x2="39" y1="15" y2="240.2" gradientUnits="userSpaceOnUse">
      <stop stop-color="#fb4934" offset="1e-7"/>
      <stop stop-color="#cc241d" offset="1"/>
    </linearGradient>
    <linearGradient id="paint2_linear" x1="68" x2="68" y1="71" y2="186" gradientUnits="userSpaceOnUse">
      <stop stop-color="#fb4934" offset="1e-7"/>
      <stop stop-color="#cc241d" offset="1"/>
    </linearGradient>
    <linearGradient id="paint3_linear" x1="155.6" x2="155.6" y1="15" y2="75.16" gradientUnits="userSpaceOnUse">
      <stop stop-color="#fb4934" offset="1e-7"/>
      <stop stop-color="#cc241d" offset="1"/>
    </linearGradient>
  </defs>
</svg>
